X: 130
T: No_214_We_Are_Going_to_Hunt.krn
N: Derived from No_214_We_Are_Going_to_Hunt.krn
%%abc-version 2.0
%%abcx-abcm2ps-target-version 5.9.1 (29 Sep 2008)
%%abc-creator hum2abc beta
%%abcx-conversion-date 2019/03/15 08:38:45
%%humdrum-veritas 1932202510
%%humdrum-veritas-data 3635212454
%%linebreak <none>
%%barnumbers 0
L: 1/4
M: 2/4
K: F clef=bass
[K:clef=bass][M:2/4]CC | 
(A,/G,/)F, | 
G,z | 
G,D, | 
F,/F,/D, | 
D,2 | 
(F,/D,/) F,3//F,// | 
F,2 | 
G,z | 
F,D, | 
F,/F,/D, ||  
[M:3/4]D,2z ]|:  
[M:2/4]CC | 
CC | 
B,/B,/B, | 
CC | 
(B,/A,/)F, | 
G,z | 
G,D, | 
F,/F,/D, | 
D,2 | 
(F,/D,/) F,3//F,// | 
F,2 | 
G,z | 
G,D, | 
F,/F,/D, | 
D,2 :|]  
D,A,/F,/ | 
A,2 | 
A,,//A,,//A,,/ B,,/A,,/ |]  



